src/24/actions/window-new.svg

<svg xmlns="http://www.w3.org/2000/svg" viewBox="0 0 24 24"><path d="M4 4v16h10v-1H5V8h14v6h1V4H4zm13 11v2h-2v1h2v2h1v-2h2v-1h-2v-2h-1z" fill="currentColor" color="#5d656b"/></svg>

<svg xmlns="http://www.w3.org/2000/svg" viewBox="0 0 24 24">
  <defs id="defs3051">
    <style type="text/css" id="current-color-scheme">
      .ColorScheme-Text {
        color:#5d656b;
      }
      </style>
  </defs>
 <path style="fill:currentColor;fill-opacity:1;stroke:none" 
     d="M 4 4 L 4 8 L 4 19 L 4 20 L 14 20 L 14 19 L 5 19 L 5 8 L 19 8 L 19 14 L 20 14 L 20 8 L 20 4 L 4 4 z M 17 15 L 17 17 L 15 17 L 15 18 L 17 18 L 17 20 L 18 20 L 18 18 L 20 18 L 20 17 L 18 17 L 18 15 L 17 15 z "
     class="ColorScheme-Text"
     />
</svg>
